!!!COM: Franz Schubert
!!!CNT: Deutsch
!!!TXO: Deutsch
!!!OTL: "Antigone und Oedip"
!!!LYR: Johann Mayrhofer
!!!OPS: Op. 6
!!!ONM: No. 2
!!!ENC: Ben Fuhrman
!!!YOR: Schubert Lieder - Dietrich Fischer-Dieskau, and Elmar Budde, eds.
!!!YOR: New York: C. F. Peters, Vol. 2
!!!ODT: 1817/
!!NB: Only vocal melody encoded.
!!NB: First instance of melodic material only encoded.
**kern
*clef G2
*k[]
*M4/4
!!created: 08/08/06 2:05
!!proofed and posted: 08/08/06 2:05
!!edit time: 45 minutes
=1
2r
4r
8r
{8g
=2
4.g
8cc
8.cc
16e
8e
8e
=3
8f
4ff
16ee
16dd
8.cc
16b
4b
=4
8.dd
16b
8.g
16f
qf
8e
8e}
8r
{8g
=5
8.cc
16cc
8.cc
16cc
8b
16a
16a
[4dd
=6
8.dd]
16cc
8cc
16b
16a
8g
8g
8cc
8ee
=7
4.ee
8dd
(qdd
4.cc)}
16r
{16ee
=8
4dd
8b
8r
8.b
16b
8cc
16dd
16ee
=9
8ee
8dd}
8r
{16cc
16b
8.a
16a
8.b
16b
=10
16dd
16dd#
16ee
16cc
8b}
16r
{16ddn
8.gg
16gg
8.gg
16ff#
=11
4.ee
8cc
4ee-
8.f#
16a
=12
[2dd
8dd]
8cc
8b
8a
=13
(4g
8.cc)
16f#
4g}
4r
=14
{4b
8b
8ee
4d#
4ee
=15
4.b
8a
4g
4f#}
=16
8r
{8b
8.b
16b
[4dd
16dd]
16cc
16b
16a
=17
4g
4a
4b}
8r
{8b
=18
4.b
8dd
4cc
8r
8cc
=19
4.b
8dd
qdd
4cc
8cc
8cc
=20
4.cc
8a
4a
4a
=21
2ee
2g#
=22
2a}
2r
!! rest to measure 27
=27
8r
{8b
8cc
8cc
8.dd#
16dd#
8ee
8ff#
=28
8ee
8ee}
4r
2r
!! rest to measure 31
=31
8r
{8b
4dd
8r
8dd
16dd
16dd
16dd
16ee
=32
4ff
16r
16ff
16ee
16dd
4.cc
8cc
=33
(8cc
8cc#
8dd)
8ccn
qb-
8a
8a}
4r
!! rest to measure 35
=35
4r
8r
{8a
8.cc
16cc
8b
8a
=36
4dd#}
4r
2r
=37
2r
4r
{4dd#
=38
2ee}
2r
=39
2r
4r
{4a#
=40
2.b
4B
=41
4.c
8c
4.B
8B
=42
2e}
2r
!! rest to measure 44
=44
2r
{4b
8g#
8e
=45
8cc#
8a
8f#
8b
8g#
8e}
8r
{8b
=46
4.cc
8g
8.f
16e
8.d
16c
=47
4B
8.A
16c
4f
4d
=48
2g
2a-
=49
4g
4G
4c}
4r
!! rest to measure 55
=55
2r
4r
{4g
=56
4.e
8e
8e
8g
8g
8cc
=57
2b}
8r
{8g
12g
12a
12b
=58
[4cc
12cc]
12g
12e
[4f
12f]
12g
12a
=59
4g
4e}
8r
{8g
12g
12a
12b
=60
[4cc
12cc]
12g
12e
[4f
12f]
12g
12a
=61
4g
4e}
4r
8r
{8g
=62
4.g
8g
4g
8r
8g
=63
(4g
12cc
12g)
12e
4g
8r
8g
=64
(4g
12cc
12g)
12e
2g}
=65
2r
4r
{4g
=66
2.a-
4g
=67
2.cc
4A
=68
(4B-
2a-)
8g
8f
=69
4e-}
4r
2r
=70
4r
8r
{8b
4.b
8b
=71
2cc}
2r
=72
4r
8r
{8b
4.b
8b
=73
4cc
4g}
4r
{4g
=74
2.a-
4A-
=7
4.A-
8A-
4A-
4A-
=76
1A-
=77
2.A-}
{4A-
=78
2.e
4e
=79
4.e
8e
4e
4e
=80
2.e
4f#
=81
2.g
4g
=82
2c}
2r
==
*-
